X: 157
T: Off minor
M: 4/4
L: 1/4
C: Thelomious Monk
Q: 1/4=170
S: Bud Powell - "The Complete Blue Note", Monk & Coltrane
K: Gm
%%text (medium)
%%vskip 20
P: A
"Gm6"[B/G/]G/^F=ED | "Db7"F2"Gb7"=E>B, | "Bm7"A,<D-"Bb7"D2 | "Ebmaj7"G,<D-"Ab7"D2 |
"Gm6"[B/G/]G/^F=ED | z"Bb7b5"=E-E>B | "D7"=B4 | z/B/=B-B2 :|
P: B
"Dbmaj7"z2"Dmaj7"z(3=D/=E/=G/ | "Bbm7/Eb"B2"Eb7"A2 |\
"Bm7"A>=F E/[^F/=B/]"E7"[=Fc] | [=E=B]^G^F=F |
"Em7"=E3d | =BG"A7"^c | "Am7b5"_E/D/=B,"D7"^G2|=B^G3 ||
P: A
"Gm6"[B/G/]G/^F=ED | "Db7"F2"Gb7"=E>B, | "Bm7"A,<D-"Bb7"D2 | "Ebmaj7"G,<D-"Ab7"D2 |
"Gm6"[B/G/]G/^F=ED | z"Bb7b5"=E-E>B | "D7"=B4 | z/B/=B-B2 |]
